assets/svgs/splash.svg

<svg width="1125" height="2436" fill="none" xmlns="http://www.w3.org/2000/svg">
    <g clip-path="url(#prefix__clip0_0_329)">
        <path fill="#fff" d="M0 0h1125v2436H0z" />
        <g fill-rule="evenodd" clip-rule="evenodd">
            <path d="M561 1361.29L0 1053V0h1125v1053l-564 308.29z" fill="url(#prefix__paint0_linear_0_329)" />
            <path d="M562.5 1442.97L0 696V0h1125v681.81l-562.5 761.16z" fill="url(#prefix__paint1_linear_0_329)" />
            <path d="M0 696l561 746.97L564 0H0v696z" fill="url(#prefix__paint2_linear_0_329)" />
            <path d="M456 1280.41l105.062 61.58V1113L456 1280.41z" fill="#47ADF7" />
            <path d="M666.062 1280.41L561 1341.99V1113l105.062 167.41z" fill="url(#prefix__paint3_linear_0_329)" />
            <path d="M456 1302.6l105.062 58.69v81.68L456 1302.6z" fill="#47ADF7" />
            <path d="M666.062 1302.6L561 1361.29v81.68l105.062-140.37z" fill="url(#prefix__paint4_linear_0_329)" />
        </g>
        <rect x="372" y="2397" width="402" height="15" rx="2.5" fill="#fff" />
        
    </g>
    <defs>
        <linearGradient id="prefix__paint0_linear_0_329" x1="0" y1="0" x2="0" y2="1361.29"
            gradientUnits="userSpaceOnUse">
            <stop stop-color="#fff" />
            <stop offset="1" stop-color="#F6FBFF" />
        </linearGradient>
        <linearGradient id="prefix__paint1_linear_0_329" x1="0" y1="0" x2="0" y2="1442.97"
            gradientUnits="userSpaceOnUse">
            <stop stop-color="#fff" />
            <stop offset="1" stop-color="#E6F4FE" />
        </linearGradient>
        <linearGradient id="prefix__paint2_linear_0_329" x1="0" y1="0" x2="0" y2="1442.97"
            gradientUnits="userSpaceOnUse">
            <stop stop-color="#fff" />
            <stop offset="1" stop-color="#D6EEFF" />
        </linearGradient>
        <linearGradient id="prefix__paint3_linear_0_329" x1="666.062" y1="1113" x2="666.062" y2="1341.99"
            gradientUnits="userSpaceOnUse">
            <stop stop-color="#388AC4" />
            <stop offset="1" stop-color="#1B3C55" />
        </linearGradient>
        <linearGradient id="prefix__paint4_linear_0_329" x1="666.062" y1="1302.6" x2="666.062" y2="1442.97"
            gradientUnits="userSpaceOnUse">
            <stop stop-color="#4A9DD8" />
            <stop offset="1" stop-color="#18364F" />
        </linearGradient>
        <clipPath id="prefix__clip0_0_329">
            <path fill="#fff" transform="scale(3)" d="M0 0h375v812H0z" />
        </clipPath>
    </defs>
</svg>

<svg width="1125" height="2436" viewBox="0 0 1125 2436" fill="none" xmlns="http://www.w3.org/2000/svg">
    <g id="&#229;&#144;&#175;&#229;&#138;&#168;&#233;&#161;&#181;" clip-path="url(#clip0_0_329)">
        <rect width="375" height="812" transform="scale(3)" fill="white" />
        <g id="&#231;&#188;&#150;&#231;&#187;&#132;">
            <path id="&#232;&#183;&#175;&#229;&#190;&#132; 6" fill-rule="evenodd" clip-rule="evenodd"
                d="M561 1361.29L0 1053L0 0H1125V1053L561 1361.29Z" fill="url(#paint0_linear_0_329)" />
            <path id="&#232;&#183;&#175;&#229;&#190;&#132; 5" fill-rule="evenodd" clip-rule="evenodd"
                d="M562.5 1442.97L0 696L0 0H1125V681.81L562.5 1442.97Z" fill="url(#paint1_linear_0_329)" />
            <path id="&#232;&#183;&#175;&#229;&#190;&#132; 7" fill-rule="evenodd" clip-rule="evenodd"
                d="M0 696L561 1442.97L564 0H0L0 696Z" fill="url(#paint2_linear_0_329)" />
            <g id="&#231;&#188;&#150;&#231;&#187;&#132; 6">
                <path id="&#232;&#183;&#175;&#229;&#190;&#132; 3" fill-rule="evenodd" clip-rule="evenodd"
                    d="M456 1280.41L561.062 1341.99V1113L456 1280.41Z" fill="#47ADF7" />
                <path id="&#232;&#183;&#175;&#229;&#190;&#132; 3&#229;&#164;&#135;&#228;&#187;&#189;"
                    fill-rule="evenodd" clip-rule="evenodd" d="M666.062 1280.41L561 1341.99V1113L666.062 1280.41Z"
                    fill="url(#paint3_linear_0_329)" />
                <path id="&#232;&#183;&#175;&#229;&#190;&#132; 4" fill-rule="evenodd" clip-rule="evenodd"
                    d="M456 1302.6L561.062 1361.29V1442.97L456 1302.6Z" fill="#47ADF7" />
                <path id="&#232;&#183;&#175;&#229;&#190;&#132; 4&#229;&#164;&#135;&#228;&#187;&#189;"
                    fill-rule="evenodd" clip-rule="evenodd" d="M666.062 1302.6L561 1361.29V1442.97L666.062 1302.6Z"
                    fill="url(#paint4_linear_0_329)" />
            </g>
        </g>
        <g id="Bars/Home Indicator/iPhone/Light - Portrait">
            <rect id="Home Indicator" x="372" y="2397" width="402" height="15" rx="2.5" fill="white" />
        </g>
        <g id="Bars/Status Bar/iPhone/Light&#229;&#164;&#135;&#228;&#187;&#189; 4">


        </g>
    </g>
    <defs>
        <linearGradient id="paint0_linear_0_329" x1="0" y1="0" x2="0" y2="1361.29" gradientUnits="userSpaceOnUse">
            <stop stop-color="white" />
            <stop offset="1" stop-color="#F6FBFF" />
        </linearGradient>
        <linearGradient id="paint1_linear_0_329" x1="0" y1="0" x2="0" y2="1442.97" gradientUnits="userSpaceOnUse">
            <stop stop-color="white" />
            <stop offset="1" stop-color="#E6F4FE" />
        </linearGradient>
        <linearGradient id="paint2_linear_0_329" x1="0" y1="0" x2="0" y2="1442.97" gradientUnits="userSpaceOnUse">
            <stop stop-color="white" />
            <stop offset="1" stop-color="#D6EEFF" />
        </linearGradient>
        <linearGradient id="paint3_linear_0_329" x1="666.062" y1="1113" x2="666.062" y2="1341.99"
            gradientUnits="userSpaceOnUse">
            <stop stop-color="#388AC4" />
            <stop offset="1" stop-color="#1B3C55" />
        </linearGradient>
        <linearGradient id="paint4_linear_0_329" x1="666.062" y1="1302.6" x2="666.062" y2="1442.97"
            gradientUnits="userSpaceOnUse">
            <stop stop-color="#4A9DD8" />
            <stop offset="1" stop-color="#18364F" />
        </linearGradient>
        <clipPath id="clip0_0_329">
            <rect width="375" height="812" fill="white" transform="scale(3)" />
        </clipPath>
    </defs>
</svg>
